material/.icons/material/numeric-9-plus.svg

<?xml version="1.0" encoding="UTF-8"?><!DOCTYPE svg PUBLIC "-//W3C//DTD SVG 1.1//EN" "http://www.w3.org/Graphics/SVG/1.1/DTD/svg11.dtd"><svg xmlns="http://www.w3.org/2000/svg" xmlns:xlink="http://www.w3.org/1999/xlink" version="1.1" id="mdi-numeric-9-plus" width="24" height="24" viewBox="0 0 24 24"><path d="M19 11H17V9H15V11H13V13H15V15H17V13H19V11M10 7H8C6.9 7 6 7.9 6 9V11C6 12.11 6.9 13 8 13H10V15H6V17H10C11.11 17 12 16.11 12 15V9C12 7.89 11.1 7 10 7M10 11H8V9H10V11Z" /></svg>

<svg xmlns="http://www.w3.org/2000/svg" viewBox="0 0 24 24"><path d="M19 11h-2V9h-2v2h-2v2h2v2h2v-2h2v-2m-9-4H8c-1.1 0-2 .9-2 2v2a2 2 0 002 2h2v2H6v2h4c1.11 0 2-.89 2-2V9a2 2 0 00-2-2m0 4H8V9h2v2z"/></svg>
